X:1
T:Over the Water to Charlie
M:6/8
L:1/8
K:D
 A2 A ABG| FGE DFA| ABA AFA| B3 D3| D2 D DEF| GAE E2 D| dcB AFA| B3 D3|\
 d2 e fgf| efd ecA| d2 e fgf| e3 A3| d2 e fgf| efd ecA|B/2-c/2 dB GFA|\
 B3 d3|
